src/assets/LinkUnion.svg

<svg fill="none" height="20" viewBox="0 0 20 20" width="20" xmlns="http://www.w3.org/2000/svg"><path clip-rule="evenodd" d="m7.3125 5.3125c.41421 0 .75.33579.75.75s-.33579.75-.75.75h-.5c-1.81218 0-3.28125 1.46907-3.28125 3.2813 0 1.8121 1.46907 3.2812 3.28125 3.2812h.5c.41421 0 .75.3358.75.75s-.33579.75-.75.75h-.5c-2.64061 0-4.78125-2.1406-4.78125-4.7812 0-2.64066 2.14064-4.7813 4.78125-4.7813zm4.6563.75c0-.41421.3357-.75.75-.75h.4687c2.6406 0 4.7813 2.14064 4.7813 4.7813 0 2.6406-2.1407 4.7812-4.7813 4.7812h-.4687c-.4143 0-.75-.3358-.75-.75s.3357-.75.75-.75h.4687c1.8122 0 3.2813-1.4691 3.2813-3.2812 0-1.81223-1.4691-3.2813-3.2813-3.2813h-.4687c-.4143 0-.75-.33579-.75-.75zm-6.11046 4.0165c0-.41423.33578-.75002.75-.75002h6.75206c.4142 0 .75.33579.75.75002 0 .4142-.3358.75-.75.75h-6.75206c-.41422 0-.75-.3358-.75-.75z" fill="#1855d1" fill-rule="evenodd"/></svg>

<svg width="20" height="20" viewBox="0 0 20 20" fill="none" xmlns="http://www.w3.org/2000/svg">
<path fill-rule="evenodd" clip-rule="evenodd" d="M7.3125 5.3125C7.72671 5.3125 8.0625 5.64829 8.0625 6.0625C8.0625 6.47671 7.72671 6.8125 7.3125 6.8125H6.8125C5.00032 6.8125 3.53125 8.28157 3.53125 10.0938C3.53125 11.9059 5.00032 13.375 6.8125 13.375H7.3125C7.72671 13.375 8.0625 13.7108 8.0625 14.125C8.0625 14.5392 7.72671 14.875 7.3125 14.875H6.8125C4.17189 14.875 2.03125 12.7344 2.03125 10.0938C2.03125 7.45314 4.17189 5.3125 6.8125 5.3125H7.3125ZM11.9688 6.0625C11.9688 5.64829 12.3045 5.3125 12.7188 5.3125H13.1875C15.8281 5.3125 17.9688 7.45314 17.9688 10.0938C17.9688 12.7344 15.8281 14.875 13.1875 14.875H12.7188C12.3045 14.875 11.9688 14.5392 11.9688 14.125C11.9688 13.7108 12.3045 13.375 12.7188 13.375H13.1875C14.9997 13.375 16.4688 11.9059 16.4688 10.0938C16.4688 8.28157 14.9997 6.8125 13.1875 6.8125H12.7188C12.3045 6.8125 11.9688 6.47671 11.9688 6.0625ZM5.85834 10.079C5.85834 9.66477 6.19412 9.32898 6.60834 9.32898H13.3604C13.7746 9.32898 14.1104 9.66477 14.1104 10.079C14.1104 10.4932 13.7746 10.829 13.3604 10.829H6.60834C6.19412 10.829 5.85834 10.4932 5.85834 10.079Z" fill="#1855D1"/>
</svg>
